icons/plexis/48/web-memrise.svg

<svg viewBox="0 0 48 48" xmlns="http://www.w3.org/2000/svg" xmlns:xlink="http://www.w3.org/1999/xlink">
  <linearGradient id="a" gradientTransform="matrix(0 -1 1 0 -.0000015 47.999998)" gradientUnits="userSpaceOnUse" x1="1" x2="47">
    <stop offset="0" stop-color="#e4e4e4"/>
    <stop offset="1" stop-color="#eee"/>
  </linearGradient>
  <path d="m47 24c0 22.703-.297 23-23 23-22.703 0-23-.297-23-23 0-22.703.297-23 23-23 22.703 0 23 .297 23 23z" fill="url(#a)"/>
  <path d="m25 13l-10 6 10 6-10 6 10 6 10-6v-12z" opacity=".1" transform=""/>
  <path d="m24 24l-10-6 10-6m0 12" fill="#f4b235"/>
  <path d="m24 12v12l10-6m-10-6" fill="#f37d3b"/>
  <path d="m24 24l10-6v12m-10-6" fill="#de2851"/>
  <path d="m24 36v-12l10 6m-10 6" fill="#862058"/>
  <path d="m24 36l-10-6 10-6m0 12" fill="#2c61a9"/>
</svg>

<svg xmlns="http://www.w3.org/2000/svg" viewBox="0 0 48 48">
 <defs>
  <linearGradient id="linearGradient3764" x1="1" x2="47" gradientUnits="userSpaceOnUse" gradientTransform="matrix(0,-1,1,0,-1.5e-6,47.999998)">
   <stop style="stop-color:#e4e4e4;stop-opacity:1"/>
   <stop offset="1" style="stop-color:#eee;stop-opacity:1"/>
  </linearGradient>
 </defs>
 <g>
  
  
  
 </g>
 <g>
  <path d="m 47,24 C 47,46.703 46.703,47 24,47 1.297,47 1,46.703 1,24 1,1.297 1.297,1 24,1 46.703,1 47,1.297 47,24 z" style="fill:url(#linearGradient3764);fill-opacity:1"/>
 </g>
 <g>
  <g>
   <g transform="translate(1,1)">
    <g style="opacity:0.1">
     <!-- color: #eeeeee -->
     <g>
      <path d="m 25 13 l -10 6 l 10 6 l -10 6 l 10 6 l 10 -6 l 0 -12 l -10 -6 z" transform="translate(-1,-1)"/>
     </g>
    </g>
   </g>
  </g>
 </g>
 <g>
  <g>
   <!-- color: #eeeeee -->
   <g>
    <path d="M 24,24 14,18 24,12 m 0,12" style="fill:#f4b235;fill-opacity:1;stroke:none;fill-rule:nonzero"/>
    <path d="m 24,12 0,12 10,-6 M 24,12" style="fill:#f37d3b;fill-opacity:1;stroke:none;fill-rule:nonzero"/>
    <path d="m 24,24 10,-6 0,12 M 24,24" style="fill:#de2851;fill-opacity:1;stroke:none;fill-rule:nonzero"/>
    <path d="m 24 36 0 -12 10 6 m -10 6" style="fill:#862058;fill-opacity:1;stroke:none;fill-rule:nonzero"/>
    <path d="M 24,36 14,30 24,24 m 0,12" style="fill:#2c61a9;fill-opacity:1;stroke:none;fill-rule:nonzero"/>
   </g>
  </g>
 </g>
 <g>
  
 </g>
</svg>
